X:263
T:Foxhunter's Jig
C:Traditional Irish
S:Colin Hume's website,  colinhume.com  - chords can also be printed below the stave.
Q:3/8=128
M:9/8
L:1/8
K:D
P:A
|: "D"FGF F2D "G"G2E | "D"FGF F2D "C"E2D | "D"FGF F2D "G"G2B | "D"AFD D2F "A7"E2D :|
P:B
|: "G"B3 BAG FGA | "Em"B2E E2F G2B | "A7"ABc dcB ABc | "D"d2D DEF "A7"E2D :|
P:C
|: "D"fgf f2d "G"g2e | "D"fgf f2d "C"e2d | "D"fgf f2d "G"g2b | "D"afd d2f "A7"e2d :|
P:D
|: "G"gfe d=cB AGA | "Em"B2E E2F G2B | "A7"AB^c dcB ABc | "D"d2D DEF "A7"E2D :|

